places/16x16-dark/folder-appimage.svg

<svg viewBox="0 0 16 16" xmlns="http://www.w3.org/2000/svg">
  <path d="m6.4934694.72316389v2.72881401h-1.4496822l2.8140865 3.183616 2.8140903-3.183616h-1.4496827v-2.72881401zm1.0090919 6.36723251c-.078633 0-.1279133.1341299-.1279133.2984643v1.0375167c-.3165665.0720837-.6146867.2011909-.8811786.3695262l-.7390539-.7390531c-.1162009-.1162009-.242864-.1693026-.2984636-.1137014l-.6964162.6964171c-.055594.055594-.00245.1822627.1137004.2984643l.7390523.7390534c-.1683353.2664933-.2974408.5646141-.3695261.8811801h-1.0375176c-.1643318 0-.2984643.04927-.2984643.127913v.994881c0 .07863.1341317.127911.2984643.127911h1.0375176c.072083.316566.2011908.614687.3695261.881179l-.7390523.739055c-.1162008.116201-.1693017.242863-.1137004.298465l.6964162.696415c.055594.0556.1822627.0026.2984636-.113702l.739053-.739053c.266492.168336.5646139.297443.8811795.369528v1.037518c0 .16433.049274.298462.1279124.298462h.9948806c.078633 0 .1279132-.134132.1279132-.298462v-1.037518c.3165657-.07208.6146858-.201192.8811794-.369528l.7390534.739053c.116201.116202.242863.169303.298465.113702l.696415-.696415c.0556-.0556.0026-.182264-.113701-.298465l-.739054-.739055c.168335-.266492.297443-.564613.369527-.881179h1.037518c.164333 0 .298463-.04927.298463-.127911v-.994881c0-.07863-.13413-.127913-.298463-.127913h-1.037517c-.072084-.316566-.201192-.6146868-.369528-.8811801l.739054-.7390534c.116201-.1162016.169301-.242863.113701-.2984643l-.696415-.6964171c-.0556-.055594-.182265-.00253-.298465.1137014l-.7390534.7390531c-.2664936-.1683353-.5646137-.2974416-.8811794-.3695262v-1.0375167c0-.1643344-.049274-.2984643-.1279124-.2984643zm.4974418 2.8283022c.6952158 0 1.2649176.5697004 1.2649176 1.2649174 0 .695219-.5697018 1.26492-1.2649176 1.26492-.6952191 0-1.26492-.569701-1.26492-1.26492 0-.695217.5697009-1.2649174 1.26492-1.2649174z" fill="#f2f2f2" />
</svg>

<?xml version="1.0" encoding="UTF-8" standalone="no"?>
<svg
   xmlns:dc="http://purl.org/dc/elements/1.1/"
   xmlns:cc="http://creativecommons.org/ns#"
   xmlns:rdf="http://www.w3.org/1999/02/22-rdf-syntax-ns#"
   xmlns:svg="http://www.w3.org/2000/svg"
   xmlns="http://www.w3.org/2000/svg"
   xmlns:sodipodi="http://sodipodi.sourceforge.net/DTD/sodipodi-0.dtd"
   xmlns:inkscape="http://www.inkscape.org/namespaces/inkscape"
   viewBox="0 0 16 16"
   version="1.1"
   id="svg6"
   sodipodi:docname="folder-appimage.svg"
   inkscape:version="0.92.4 (5da689c313, 2019-01-14)">
  <metadata
     id="metadata10">
    <rdf:RDF>
      <cc:Work
         rdf:about="">
        <dc:format>image/svg+xml</dc:format>
        <dc:type
           rdf:resource="http://purl.org/dc/dcmitype/StillImage" />
        <dc:title></dc:title>
      </cc:Work>
    </rdf:RDF>
  </metadata>
  <sodipodi:namedview
     pagecolor="#ffffff"
     bordercolor="#666666"
     borderopacity="1"
     objecttolerance="10"
     gridtolerance="10"
     guidetolerance="10"
     inkscape:pageopacity="0"
     inkscape:pageshadow="2"
     inkscape:window-width="1920"
     inkscape:window-height="1022"
     id="namedview8"
     showgrid="false"
     inkscape:zoom="14.75"
     inkscape:cx="-4.0677966"
     inkscape:cy="8"
     inkscape:window-x="0"
     inkscape:window-y="32"
     inkscape:window-maximized="1"
     inkscape:current-layer="svg6" />
  <defs
     id="defs3051">
    <style
       type="text/css"
       id="current-color-scheme">
      .ColorScheme-Text {
        color:#4d4d4d;
      }
      </style>
  </defs>
  <path
     inkscape:connector-curvature="0"
     style="display:inline;overflow:visible;visibility:visible;fill:#f2f2f2;fill-opacity:1;fill-rule:nonzero;stroke:none;stroke-width:0.45561516;marker:none;enable-background:accumulate"
     id="path2317"
     d="M 6.4934694,0.72316389 V 3.4519779 H 5.0437872 l 2.8140865,3.183616 2.8140903,-3.183616 H 9.2222813 V 0.72316389 Z M 7.5025613,7.0903964 c -0.078633,0 -0.1279133,0.1341299 -0.1279133,0.2984643 V 8.4263774 C 7.0580815,8.4984611 6.7599613,8.6275683 6.4934694,8.7959036 L 5.7544155,8.0568505 C 5.6382146,7.9406496 5.5115515,7.8875479 5.4559519,7.9431491 L 4.7595357,8.6395662 c -0.055594,0.055594 -0.00245,0.1822627 0.1137004,0.2984643 L 5.6122884,9.6770839 C 5.4439531,9.9435772 5.3148476,10.241698 5.2427623,10.558264 H 4.2052447 c -0.1643318,0 -0.2984643,0.04927 -0.2984643,0.127913 v 0.994881 c 0,0.07863 0.1341317,0.127911 0.2984643,0.127911 h 1.0375176 c 0.072083,0.316566 0.2011908,0.614687 0.3695261,0.881179 l -0.7390523,0.739055 c -0.1162008,0.116201 -0.1693017,0.242863 -0.1137004,0.298465 l 0.6964162,0.696415 c 0.055594,0.0556 0.1822627,0.0026 0.2984636,-0.113702 l 0.739053,-0.739053 c 0.266492,0.168336 0.5646139,0.297443 0.8811795,0.369528 v 1.037518 c 0,0.16433 0.049274,0.298462 0.1279124,0.298462 H 8.497441 c 0.078633,0 0.1279132,-0.134132 0.1279132,-0.298462 V 13.940856 C 8.9419199,13.868776 9.24004,13.739664 9.5065336,13.571328 l 0.7390534,0.739053 c 0.116201,0.116202 0.242863,0.169303 0.298465,0.113702 l 0.696415,-0.696415 c 0.0556,-0.0556 0.0026,-0.182264 -0.113701,-0.298465 l -0.739054,-0.739055 c 0.168335,-0.266492 0.297443,-0.564613 0.369527,-0.881179 h 1.037518 c 0.164333,0 0.298463,-0.04927 0.298463,-0.127911 v -0.994881 c 0,-0.07863 -0.13413,-0.127913 -0.298463,-0.127913 H 10.75724 C 10.685156,10.241698 10.556048,9.9435772 10.387712,9.6770839 l 0.739054,-0.7390534 c 0.116201,-0.1162016 0.169301,-0.242863 0.113701,-0.2984643 L 10.544052,7.9431491 c -0.0556,-0.055594 -0.182265,-0.00253 -0.298465,0.1137014 L 9.5065336,8.7959036 C 9.24004,8.6275683 8.9419199,8.498462 8.6253542,8.4263774 V 7.3888607 c 0,-0.1643344 -0.049274,-0.2984643 -0.1279124,-0.2984643 z m 0.4974418,2.8283022 c 0.6952158,0 1.2649176,0.5697004 1.2649176,1.2649174 0,0.695219 -0.5697018,1.26492 -1.2649176,1.26492 -0.6952191,0 -1.26492,-0.569701 -1.26492,-1.26492 0,-0.695217 0.5697009,-1.2649174 1.26492,-1.2649174 z" />
</svg>
